X:1
T:The Lovers' Tasks
M:3/4
L:1/8
K:Ddor
D2|B2d2B2|A2G2E2|G2G2E2|D6|B,2D2D2|
w:Go tell him to clear me one a-cre of ground Se-ther-wood, 
D4D2|E2G2G2|A4G2|(B2d2)B2|A2G2G2|
w:sale, rose-ma-ry and thyme, Be-twixt_ the sea and the 
(A2G2)E2|D4D2|E4G2|A2B2A2|G2G2E2|D4|]
w:sea_land side And then he'll be a true lov-er of mine